libs/icons/src/svg/circle-3.svg

<svg width="16" height="16" viewBox="0 0 16 16" fill="none" xmlns="http://www.w3.org/2000/svg">
<g clip-path="url(#clip0_4_384)">
<path fill-rule="evenodd" clip-rule="evenodd" d="M16 8C16 12.4183 12.4183 16 8 16C3.58172 16 0 12.4183 0 8C0 3.58172 3.58172 0 8 0C12.4183 0 16 3.58172 16 8ZM14.6666 8.00002C14.6666 11.6819 11.6819 14.6667 7.99995 14.6667C4.31806 14.6667 1.33329 11.6819 1.33329 8.00002C1.33329 4.31812 4.31806 1.33335 7.99995 1.33335C11.6819 1.33335 14.6666 4.31812 14.6666 8.00002ZM10.8076 9.65157C10.8112 10.894 9.66567 11.7953 8.09285 11.7953C6.54158 11.7953 5.43199 10.9371 5.39608 9.69466H6.74626C6.77858 10.2943 7.34953 10.6786 8.08926 10.6786C8.87567 10.6786 9.43944 10.2333 9.43585 9.58335C9.43944 8.91903 8.88644 8.45221 7.9564 8.45221H7.30644V7.42521H7.9564C8.71767 7.42521 9.24912 6.99789 9.24553 6.35512C9.24912 5.73748 8.79308 5.32094 8.10721 5.32094C7.42853 5.32094 6.85399 5.70516 6.83244 6.3228H5.55049C5.57921 5.09112 6.68521 4.24007 8.1144 4.24007C9.58308 4.24007 10.5383 5.15575 10.5347 6.27612C10.5383 7.10203 10.0032 7.69453 9.20603 7.86689V7.92435C10.2366 8.07157 10.8112 8.7323 10.8076 9.65157Z" fill="#202327"/>
</g>
<defs>
<clipPath id="clip0_4_384">
<rect width="16" height="16" fill="white"/>
</clipPath>
</defs>
</svg>

<svg xmlns="http://www.w3.org/2000/svg" viewBox="0 0 16 16" class="sageicon"><path fill-rule="evenodd" d="M16 8A8 8 0 1 1 0 8a8 8 0 0 1 16 0Zm-1.333 0A6.667 6.667 0 1 1 1.333 8a6.667 6.667 0 0 1 13.334 0Zm-3.86 1.652c.004 1.242-1.141 2.143-2.714 2.143-1.551 0-2.661-.858-2.697-2.1h1.35c.033.6.604.984 1.343.984.787 0 1.35-.446 1.347-1.096.003-.664-.55-1.13-1.48-1.13h-.65V7.424h.65c.762 0 1.293-.427 1.29-1.07.003-.618-.453-1.034-1.139-1.034-.678 0-1.253.384-1.275 1.002H5.55C5.58 5.09 6.685 4.24 8.114 4.24c1.47 0 2.424.916 2.42 2.036.004.826-.53 1.419-1.328 1.59v.058c1.03.148 1.605.808 1.602 1.728Z"/></svg>
